X:530
T: Songlang danghongjun
N: C1948
O: China, Henan Xinxian
S: IV, 132]
R: Xiaodiao, Wanglang diao]
M: 2/4
L: 1/16
K: Bb
d2dfd2c2 | d2dfd2c2 | b2b2g2d2 | c8
f2d2d2d2 | c2c2b2g2 | b2c2g2g2 | f8
d4d2d2 | d2b2c2cc | c2b2g2g2 | f8
g2c2c2c2 | g4b2g2 | f8

